X:33
T: Winterrosen
N: Q0145K
O: Mitteleuropa, Deutschland (DDR) , Brandenburg, Altlandsberg
N: Refrain auf sinnfreie Silben in der dritten Zeile.
R: Ballade, Verfuehrung, verlorene Ehre
M: 2/4
L: 1/16
K: G
D2 | G3GG3B | d3AA3
A | d3AA3G | F3ED2z2 |
D2B2G2z2 | D2c2A2
D2 | G3Gd3c | B3AG2

@@@ Tune index: 1636
